src/lib/packages/icons/src/assets/line/unlock.svg

<svg width="24" height="24" viewBox="0 0 24 24" fill="none" xmlns="http://www.w3.org/2000/svg">
<path d="M16 8.25H8.75V7C8.75 6.139 9.08905 5.3201 9.69604 4.7041C10.32 4.0891 11.138 3.75 12 3.75C13.485 3.75 14.778 4.75106 15.144 6.18506C15.246 6.58606 15.6599 6.82705 16.0549 6.72705C16.4569 6.62405 16.6999 6.21594 16.5969 5.81494C16.0629 3.71594 14.172 2.25 12 2.25C10.742 2.25 9.55099 2.74204 8.63599 3.64404C7.74199 4.55004 7.25 5.742 7.25 7V8.30396C5.312 8.56096 4.25 9.846 4.25 12V18C4.25 20.418 5.582 21.75 8 21.75H16C18.418 21.75 19.75 20.418 19.75 18V12C19.75 9.582 18.418 8.25 16 8.25ZM18.25 18C18.25 19.577 17.577 20.25 16 20.25H8C6.423 20.25 5.75 19.577 5.75 18V12C5.75 10.423 6.423 9.75 8 9.75H16C17.577 9.75 18.25 10.423 18.25 12V18ZM13.27 14C13.27 14.412 13.058 14.7601 12.75 14.9871V17C12.75 17.414 12.414 17.75 12 17.75C11.586 17.75 11.25 17.414 11.25 17V14.9619C10.962 14.7329 10.7649 14.395 10.7649 14C10.7649 13.31 11.32 12.75 12.01 12.75H12.02C12.71 12.75 13.27 13.31 13.27 14Z" fill="currentColor"/>
</svg>

<svg xmlns="http://www.w3.org/2000/svg" width="24" height="24" fill="none"><path fill="currentColor" d="M16 8.25H8.75V7c0-.861.34-1.68.946-2.296A3.268 3.268 0 0 1 12 3.75a3.24 3.24 0 0 1 3.144 2.435.75.75 0 1 0 1.453-.37A4.736 4.736 0 0 0 12 2.25a4.763 4.763 0 0 0-3.364 1.394A4.754 4.754 0 0 0 7.25 7v1.304c-1.938.257-3 1.542-3 3.696v6c0 2.418 1.332 3.75 3.75 3.75h8c2.418 0 3.75-1.332 3.75-3.75v-6c0-2.418-1.332-3.75-3.75-3.75ZM18.25 18c0 1.577-.673 2.25-2.25 2.25H8c-1.577 0-2.25-.673-2.25-2.25v-6c0-1.577.673-2.25 2.25-2.25h8c1.577 0 2.25.673 2.25 2.25v6Zm-4.98-4c0 .412-.212.76-.52.987V17a.75.75 0 0 1-1.5 0v-2.038a1.228 1.228 0 0 1-.485-.962c0-.69.555-1.25 1.245-1.25h.01c.69 0 1.25.56 1.25 1.25Z"/></svg>
